X:310
T: Wang ersao guonian, 1)
N: C0896A
O: China, Dongbei, Nordosten
S: MM,]
N: Beilage kopiert. Hier mit Noten
N: +++Dieses Lied wurde GETEILT!!! Der zweite Teil ist im folgenden Do-
N: kument unter gleicher Signatur kodiert.
N: Einige Verzierungen. Vor- und Zwischenspiele weggelassen.
N: Ergaenzungen: Phr.2, zweiter T. Punktierung und Triole und
N: fehlende Klammer fuer Zwischenspiel zwischen Phr.2 u. 3, Textunterle-
N: gung fehlt.) +++ Vieles nicht notierbar. Die Tonhoehen sind besser am
N: zweiten Teil abzulesen. +++
R: Xiaodiao. Shenghuo xiaochang]
M: 2/4
L: 1/16
K: G
z2d2B2d2 | G3BA2A2 | z2B2d2G2 | d4BdA2- | A8
z2B2B2E2 | B6EGE | B2BdE3d | B3AGAE2- | E2z6
z2B2B2G2 | B2d2B2A2 | d2Bde2B2 | G3AB2A2- | A2z6
z2E2G2G2 | d2BdE2B2 | z2d4Ed | B3AGAE2- | E2z6
z2dde2dB | d2B2A2A2 | d2BBd2d2 | G3AB2A2- | A2z6
z6E2 | B2EGz4 | z2B4gB | BdBAGAE2- | E2z6

